**kern	**kern	**dynam
*part1	*part1	*part1
*staff2	*staff1	*
*I"Piano	*	*
*clefF4	*clefG2	*
*k[b-e-a-d-g-]	*k[b-e-a-d-g-]	*
=1	=1	=1
*	*^	*
8C	(4.b-	16b-LL	.
.	.	16e- 16g-	.
16r	.	16B-JJ	.
16ryy	.	16e-LL<	.
8ryy	.	16G-< 16B-<	.
.	.	16E-JJ<)	.
=	=	=	=
8r	4.a-	(16a-LL	.
.	.	16e- 16g-	.
16r	.	16A-JJ	.
16ryy	.	16e-LL<	.
8ryy	.	16G-< 16A-<	.
.	.	16E-JJ<)	.
=	=	=	=
8BB-	(4.b-	16b-LL	.
.	.	16e- 16g-	.
16r	.	16B-JJ	.
!	!LO:TX:b:i:t=cresc.	!	!
16ryy	.	16e-LL<	.
8ryy	.	16G-< 16B-<	.
.	.	16E-JJ<)	.
=	=	=	=
8BB--	(4.dd-	16dd-LL	.
.	.	16e- 16g-	.
16r	.	16d-JJ	.
16ryy	.	16e-LL<	.
8ryy	.	16E-< 16G-<	.
.	.	16D-JJ<)	.
=	=	=	=
8AA-	(4.dd-	16dd-LL	.
.	.	16e- 16g-	.
16r	.	16d-JJ	.
16ryy	.	16d-LL<	.
8ryy	.	16G-<	.
.	.	16E-JJ<)	.
=	=	=	=
8r	(4cc	16ccLL	>
.	.	16e- 16g-	.
16r	.	16cJJ	.
16ryy	.	16cLL<	.
8ryy	8gg-	16G-<	]
.	.	16E-JJ<)	.
=	=	=	=
8AAn	(4ff	16ffLL	p
.	.	16cc	.
16r	.	16fJJ	.
16ryy	.	16fLL<	.
8ryy	8cc)	16e-<	.
.	.	16AnJJ<	.
*	*v	*v	*
=	=	=
*-	*-	*-
!!!system-decoration: {(s1,s2)}
!!!RDF**kern: < = below
